X: 102
T: No_39_Song_to_Make_the_Boy_Invisible.krn
N: Derived from No_39_Song_to_Make_the_Boy_Invisible.krn
%%abc-version 2.0
%%abcx-abcm2ps-target-version 5.9.1 (29 Sep 2008)
%%abc-creator hum2abc beta
%%abcx-conversion-date 2019/03/15 08:37:56
%%humdrum-veritas 3169802073
%%humdrum-veritas-data 3611017392
%%linebreak <none>
%%barnumbers 0
L: 1/8
M: 2/4
K: Bb clef=bass
[K:clef=bass][M:2/4]B,/B,3/ CB, | 
A,3/G,/ G,G, | 
G,2G, z | 
B,/B,3/ CB, | 
A,3/G,/ G,G, ||  
[M:3/4]G,2G, z E,E, | 
G,G, A,3/G,/ G,G, ||  
[M:2/4]G,2A,G, | 
G,/G,3/ G,G, ||  
[M:3/4]G,D, E,E,z2 | 
G,/G,G,/G,2D,G, | 
G,6 |]  



